tools/download-figma-icons/icons/solid/solar-panel.svg

<svg width="24" height="24" viewBox="0 0 24 24" fill="none" xmlns="http://www.w3.org/2000/svg">
<path fill-rule="evenodd" clip-rule="evenodd" d="M11.25 8.2425V1.5H5.25004C4.88254 1.5 4.56754 1.77 4.50754 2.1375L3.57004 8.2425H11.25ZM11.25 14.2577V9.74268H3.33753L2.64003 14.2577H11.25ZM21.3597 14.2573H12.7504V9.74234H20.6622L21.3597 14.2573ZM22.3203 22.2379C22.4628 22.0722 22.5228 21.8547 22.4928 21.6372L21.5853 15.7572H12.7503V22.4997H21.7503C21.9678 22.4997 22.1778 22.4029 22.3203 22.2379ZM11.25 15.7573V22.4998H2.25004C2.03254 22.4998 1.82254 22.4023 1.68004 22.2381C1.53754 22.0723 1.47754 21.8548 1.50754 21.6373L2.41504 15.7573H11.25ZM12.7503 8.2427H20.4303L19.4928 2.13695C19.4328 1.7702 19.1178 1.5002 18.7503 1.5002H12.7503V8.2427Z" fill="black"/>
</svg>

<svg xmlns="http://www.w3.org/2000/svg" width="24" height="24" fill="none" viewBox="0 0 24 24"><path fill="currentColor" fill-rule="evenodd" d="M11.25 8.243V1.5h-6a.756.756 0 0 0-.742.638L3.57 8.243zm0 6.015V9.743H3.338l-.698 4.515zm10.11 0h-8.61V9.741h7.912zm.96 7.98a.76.76 0 0 0 .173-.6l-.908-5.88H12.75V22.5h9a.76.76 0 0 0 .57-.262m-11.07-6.48V22.5h-9a.76.76 0 0 1-.57-.262.76.76 0 0 1-.172-.6l.907-5.88zm1.5-7.515h7.68l-.937-6.106a.756.756 0 0 0-.743-.637h-6z" clip-rule="evenodd"/></svg>
